X: 40648
T: Top It Off
R: slip jig
M: 9/8
K: Dmajor
|:B|A2F~F3d2A|Bcde2cd2B|A2F~F3d2A|BcdA2FD2AD2B|
A2F~F3d2A|Bcde2cd2B|A2F~F3d2A|BcdA2FD2AD2:|
|:g|f2dd2cd2f|e2=cc2Bc2e|d2BB2AB2d|c2AA2GA2g|
f2dd2cd2f|e2=cc2Bc2e|d2A Bcde2c|d3d3d2:|

